X:1
T:[ID 1-46a]
T:[ID 1-46a]
T:Bezeichnung standardisiert: Tantz Tantz
T:Urheber unbekannt Datum in der hier transkribierten schriftlichen Quelle: vermutlich vor 1767
C:Urheber unbekannt
C:Datum in der hier transkribierten schriftlichen Quelle: vermutlich vor 1767
L:1/8
M:none
K:D
V:1 treble 
V:1
 Ad d2 | Ae e2 | fe/f/ gf | e/d/c/B/ A2 | Ad d2 | Ae e2 | fe/d/ ed/c/ | d2 D2 :: fa ag/f/ | eg g2 | %10
 fe/f/ gf | e/d/c/B/ A2 | fa ag/f/ | ee/f/ g2 | fe/d/ ed/c/ | d2 D2 :| %16

